assets/images/footer/brands/tailwindtemplates.svg

<svg fill="none" height="44" viewBox="0 0 127 44" width="127" xmlns="http://www.w3.org/2000/svg" xmlns:xlink="http://www.w3.org/1999/xlink"><clipPath id="a"><path d="m0 0h127v43.688h-127z"/></clipPath><g clip-path="url(#a)"><g fill="#0ed7b5"><path d="m41.8653 0h-40.16346c-.953028 0-1.70184.748812-1.70184 1.70184v24.37036c0 .9531.748812 1.7019 1.70184 1.7019h40.16346c.953 0 1.7018-.7488 1.7018-1.7019v-24.37036c0-.953028-.7488-1.70184-1.7018-1.70184zm-1.7018 24.3704h-36.7598v-20.9667h36.7598z"/><path d="m37.9851 32.6753h-32.40314c-.95304 0-1.70183.7488-1.70183 1.702 0 .953.74879 1.7018 1.70183 1.7018h32.40314c.953 0 1.7018-.7488 1.7018-1.7018 0-.9532-.7488-1.702-1.7018-1.702z"/><path d="m37.9851 40.1636h-32.40314c-.95304 0-1.70183.7488-1.70183 1.7018s.74879 1.7018 1.70183 1.7018h32.40314c.953 0 1.7018-.7488 1.7018-1.7018s-.7488-1.7018-1.7018-1.7018z"/><path clip-rule="evenodd" d="m21.7836 6.12671c-3.4491 0-5.6047 1.664-6.467 4.99209 1.2934-1.66405 2.8024-2.28807 4.5269-1.87206.9839.23734 1.6872.92616 2.4657 1.68856 1.2681 1.242 2.7358 2.6795 5.9414 2.6795 3.4491 0 5.6047-1.664 6.4672-4.99208-1.2936 1.66408-2.8025 2.28798-4.5271 1.87208-.9839-.2374-1.6872-.92615-2.4656-1.68863-1.2681-1.24199-2.7358-2.67946-5.9415-2.67946zm-6.467 7.48809c-3.4491 0-5.60475 1.664-6.46699 4.9921 1.29339-1.6641 2.80239-2.2881 4.52689-1.8721.984.2374 1.6872.9262 2.4657 1.6886 1.2681 1.242 2.7357 2.6795 5.9414 2.6795 3.4491 0 5.6047-1.664 6.467-4.9921-1.2934 1.664-2.8024 2.2881-4.5269 1.8721-.9839-.2374-1.6872-.9262-2.4656-1.6886-1.2682-1.242-2.7358-2.6795-5.9415-2.6795z" fill-rule="evenodd"/></g><path d="m57.3025 6.03905-.2276 1.70688h-2.9261v9.52597h-2.1621v-9.52597h-3.0236v-1.70688zm6.884 8.95705c0 .336.0488.5852.1463.7478.1084.1517.2764.2709.504.3576l-.4389 1.3818c-.4877-.0434-.8887-.1626-1.203-.3577-.3034-.195-.5364-.4931-.699-.894-.2926.4335-.6611.7586-1.1054.9753-.4335.2059-.9212.3089-1.463.3089-.8562 0-1.5335-.2439-2.032-.7315-.4986-.4877-.7478-1.1271-.7478-1.9182 0-.932.3359-1.6419 1.0079-2.1296.6827-.4985 1.6527-.7477 2.9098-.7477h1.0729v-.4877c0-.5527-.1301-.9375-.3902-1.1542-.2492-.2276-.6556-.3414-1.2192-.3414-.6285 0-1.3871.1517-2.2758.4552l-.4877-1.41429c1.0729-.41182 2.1133-.61772 3.1212-.61772 2.1999 0 3.2999.98619 3.2999 2.95861zm-3.7063 1.0079c.7044 0 1.2571-.3522 1.6581-1.0567v-1.7394h-.8616c-1.3438 0-2.0157.4986-2.0157 1.4956 0 .4118.1029.7315.3088.9591s.5094.3414.9104.3414zm8.3051-7.33147v8.59937h-2.0808v-8.59937zm-1.0567-4.35661c.3902 0 .7045.12463.9429.37389.2493.23842.3739.53644.3739.89408 0 .35763-.1246.65565-.3739.89408-.2384.23842-.5527.35763-.9429.35763-.3793 0-.6935-.11921-.9428-.35763-.2384-.23843-.3576-.53645-.3576-.89408 0-.35764.1192-.65566.3576-.89408.2493-.24926.5635-.37389.9428-.37389zm5.5958 13.19988c-.661 0-1.1812-.1897-1.5605-.569-.3685-.3901-.5527-.9374-.5527-1.6418v-10.07875l2.0807-.22758v10.24123c0 .401.1626.6015.4877.6015.1626 0 .3251-.0271.4877-.0813l.4389 1.4631c-.4335.1951-.8941.2926-1.3818.2926zm13.2636-8.84327-1.8695 8.59937h-2.6009l-1.3005-6.7462-1.333 6.7462h-2.5522l-1.9019-8.59937h2.0807l1.203 7.07137 1.4955-7.07137h2.1296l1.3655 7.07137 1.2842-7.07137zm3.5174 0v8.59937h-2.0808v-8.59937zm-1.0567-4.35661c.3902 0 .7045.12463.9429.37389.2492.23842.3739.53644.3739.89408 0 .35763-.1247.65565-.3739.89408-.2384.23842-.5527.35763-.9429.35763-.3793 0-.6936-.11921-.9428-.35763-.2384-.23843-.3576-.53645-.3576-.89408 0-.35764.1192-.65566.3576-.89408.2492-.24926.5635-.37389.9428-.37389zm8.148 4.11277c.7695 0 1.3655.233 1.7882.699.4335.45517.6502 1.09461.6502 1.91821v6.226h-2.0808v-5.9009c0-.5093-.0921-.867-.2763-1.0729-.1734-.2059-.4335-.30884-.7803-.30884-.3576 0-.6828.11384-.9754.34134-.2817.2168-.5581.5365-.829.9591v5.9822h-2.0808v-8.59937h1.8044l.1626 1.12166c.7044-.91034 1.5768-1.3655 2.6172-1.3655zm12.0953-3.20244v12.04565h-1.837l-.146-1.0891c-.271.4118-.618.7369-1.041.9754-.412.2384-.883.3576-1.414.3576-1.051 0-1.859-.4064-2.422-1.2192-.564-.8128-.845-1.9182-.845-3.3162 0-.8779.14-1.6581.422-2.3409.282-.69359.683-1.23545 1.203-1.6256.531-.39014 1.143-.58521 1.837-.58521.824 0 1.544.30886 2.162.92659v-4.35661zm-3.853 10.71275c.369 0 .694-.0867.976-.2601.281-.1843.547-.466.796-.8454v-3.9339c-.249-.3034-.504-.531-.764-.6828-.249-.1517-.542-.22754-.878-.22754-.552 0-.991.24924-1.317.74774-.314.4877-.471 1.2301-.471 2.2271 0 1.0621.141 1.8261.423 2.2921.281.4552.693.6828 1.235.6828zm-48.1365 9.7427-.2276 1.7069h-2.9261v9.526h-2.1621v-9.526h-3.0236v-1.7069zm7.5035 6.73c0 .1084-.0163.3901-.0488.8453h-5.397c.065.8345.2818 1.4305.6502 1.7882.3685.3576.8562.5364 1.4631.5364.3793 0 .7369-.0596 1.0729-.1788.3359-.13.6936-.3251 1.0729-.5852l.8615 1.1867c-.9536.7694-2.0157 1.1542-3.1861 1.1542-1.3114 0-2.3246-.401-3.0399-1.203-.7044-.802-1.0566-1.8965-1.0566-3.2837 0-.8778.1517-1.6635.4551-2.3571.3035-.7044.7424-1.2517 1.3168-1.6419.5743-.401 1.2571-.6014 2.0482-.6014 1.203 0 2.135.3847 2.796 1.1541.6611.7586.9917 1.8207.9917 3.1862zm-2.0646-.6015c0-1.5064-.5581-2.2596-1.6743-2.2596-.5094 0-.9104.1897-1.203.569-.2817.3685-.4497.9645-.5039 1.7882h3.3812zm13.0509-3.7388c.6936 0 1.2463.2384 1.6581.7152.4118.466.6177 1.1.6177 1.902v6.226h-2.0807v-5.9009c0-.9212-.3143-1.3818-.9429-1.3818-.3359 0-.6285.1084-.8778.3251-.2384.206-.4877.5311-.7478.9754v5.9822h-2.0807v-5.9009c0-.9212-.3143-1.3818-.9429-1.3818-.3468 0-.6448.1084-.8941.3251-.2384.206-.4877.5311-.7477.9754v5.9822h-2.0808v-8.5994h1.8044l.1626 1.1217c.6502-.9104 1.4793-1.3655 2.4871-1.3655.4986 0 .9266.13 1.2843.3901.3684.2493.6339.6015.7965 1.0566.3468-.466.7261-.8236 1.1379-1.0729.4227-.2492.9049-.3738 1.4468-.3738zm9.1457 0c1.0837 0 1.8857.3955 2.4059 1.1866.5202.7912.7803 1.902.7803 3.3325 0 .8887-.1355 1.6798-.4064 2.3734-.2601.6827-.6503 1.2192-1.1705 1.6093-.5093.3902-1.1162.5853-1.8206.5853-.9104 0-1.6311-.3143-2.1621-.9429v4.0152l-2.0807.2276v-12.1432h1.8206l.1138 1.0566c.336-.4335.7207-.7586 1.1542-.9753.4335-.2168.8887-.3251 1.3655-.3251zm-.7965 7.494c1.2029 0 1.8044-.9862 1.8044-2.9586 0-1.0512-.1355-1.8099-.4064-2.2759-.271-.466-.6774-.699-1.2192-.699-.3468 0-.6719.1084-.9754.3251-.3034.206-.5635.4877-.7803.8454v3.8689c.401.596.9266.8941 1.5769.8941zm8.0582 1.5931c-.6611 0-1.1813-.1897-1.5606-.569-.3685-.3901-.5527-.9374-.5527-1.6419v-10.0787l2.0808-.2276v10.2413c0 .401.1625.6015.4877.6015.1625 0 .3251-.0271.4876-.0813l.4389 1.463c-.4334.1951-.894.2927-1.3817.2927zm9.0393-2.5197c0 .3359.048.5852.146.7477.108.1518.276.271.504.3577l-.439 1.3817c-.488-.0433-.889-.1625-1.203-.3576-.3034-.1951-.5364-.4931-.6989-.8941-.2926.4335-.6611.7586-1.1054.9754-.4335.2059-.9212.3089-1.4631.3089-.8561 0-1.5335-.2439-2.032-.7316-.4985-.4876-.7478-1.127-.7478-1.9182 0-.932.336-1.6418 1.0079-2.1295.6828-.4985 1.6527-.7478 2.9098-.7478h1.0729v-.4877c0-.5527-.13-.9374-.3901-1.1541-.2493-.2276-.6557-.3414-1.2192-.3414-.6286 0-1.3872.1517-2.2758.4552l-.4877-1.4143c1.0729-.4118 2.1133-.6177 3.1211-.6177 2.2003 0 3.3003.9861 3.3003 2.9585zm-3.7067 1.0078c.7045 0 1.2572-.3522 1.6581-1.0566v-1.7394h-.8615c-1.3439 0-2.0158.4985-2.0158 1.4956 0 .4118.103.7315.3089.9591s.5094.3413.9103.3413zm11.1497.8616c-.303.2168-.645.3793-1.024.4877-.368.1084-.748.1626-1.138.1626-.845-.0109-1.49-.2493-1.934-.7153-.434-.4769-.651-1.1759-.651-2.097v-4.5355h-1.349v-1.4955h1.349v-1.902l2.081-.2438v2.1458h2l-.212 1.4955h-1.788v4.4867c0 .4227.071.7261.212.9103.151.1843.384.2764.699.2764.314 0 .655-.103 1.024-.3089zm7.956-4.0965c0 .1084-.016.3901-.049.8453h-5.397c.065.8345.282 1.4305.65 1.7882.369.3576.856.5364 1.463.5364.38 0 .737-.0596 1.073-.1788.336-.13.694-.3251 1.073-.5852l.862 1.1867c-.954.7694-2.016 1.1542-3.186 1.1542-1.312 0-2.325-.401-3.04-1.203-.705-.802-1.057-1.8965-1.057-3.2837 0-.8778.152-1.6635.455-2.3571.304-.7044.743-1.2517 1.317-1.6419.574-.401 1.257-.6014 2.048-.6014 1.203 0 2.135.3847 2.796 1.1541.661.7586.992 1.8207.992 3.1862zm-2.065-.6015c0-1.5064-.558-2.2596-1.674-2.2596-.509 0-.91.1897-1.203.569-.282.3685-.45.9645-.504 1.7882h3.381zm6.646-3.7388c1.16 0 2.179.3413 3.056 1.0241l-.812 1.2192c-.737-.466-1.458-.699-2.162-.699-.412 0-.732.0812-.959.2438-.228.1517-.342.3576-.342.6177 0 .1951.049.3577.146.4877.098.1301.271.2547.521.3739.26.1084.639.233 1.138.3739.932.2493 1.62.5798 2.064.9916.455.4118.683.9862.683 1.7231 0 .8562-.347 1.5281-1.041 2.0158-.693.4768-1.555.7153-2.584.7153-.705 0-1.35-.1084-1.935-.3252-.574-.2167-1.073-.5147-1.495-.894l1.04-1.1705c.748.5636 1.528.8453 2.341.8453.466 0 .834-.0921 1.105-.2763.282-.1843.423-.4389.423-.7641 0-.2492-.054-.4443-.163-.5852-.097-.1517-.281-.2817-.552-.3901-.26-.1192-.672-.2601-1.236-.4227-.878-.2384-1.522-.5689-1.934-.9916-.412-.4335-.618-.9699-.618-1.6093 0-.4769.136-.9049.407-1.2843.281-.3793.671-.6773 1.17-.894.509-.2168 1.089-.3251 1.739-.3251z" fill="#fff"/></g></svg>

<svg width="127" height="44" viewBox="0 0 127 44" fill="none" xmlns="http://www.w3.org/2000/svg">
<g clip-path="url(#clip0)">
<path d="M41.8653 0H1.70184C0.748812 0 0 0.748812 0 1.70184V26.0722C0 27.0253 0.748812 27.7741 1.70184 27.7741H41.8653C42.8183 27.7741 43.5671 27.0253 43.5671 26.0722V1.70184C43.5671 0.748812 42.8183 0 41.8653 0ZM40.1635 24.3704H3.4037V3.4037H40.1635V24.3704Z" fill="#0ED7B5"/>
<path d="M37.9851 32.6753H5.58196C4.62892 32.6753 3.88013 33.4241 3.88013 34.3773C3.88013 35.3303 4.62892 36.0791 5.58196 36.0791H37.9851C38.9381 36.0791 39.6869 35.3303 39.6869 34.3773C39.6869 33.4241 38.9381 32.6753 37.9851 32.6753Z" fill="#0ED7B5"/>
<path d="M37.9851 40.1636H5.58196C4.62892 40.1636 3.88013 40.9124 3.88013 41.8654C3.88013 42.8184 4.62892 43.5672 5.58196 43.5672H37.9851C38.9381 43.5672 39.6869 42.8184 39.6869 41.8654C39.6869 40.9124 38.9381 40.1636 37.9851 40.1636Z" fill="#0ED7B5"/>
<path fill-rule="evenodd" clip-rule="evenodd" d="M21.7836 6.12671C18.3345 6.12671 16.1789 7.79071 15.3166 11.1188C16.61 9.45475 18.119 8.83073 19.8435 9.24674C20.8274 9.48408 21.5307 10.1729 22.3092 10.9353C23.5773 12.1773 25.045 13.6148 28.2506 13.6148C31.6997 13.6148 33.8553 11.9508 34.7178 8.62272C33.4242 10.2868 31.9153 10.9107 30.1907 10.4948C29.2068 10.2574 28.5035 9.56865 27.7251 8.80617C26.457 7.56418 24.9893 6.12671 21.7836 6.12671ZM15.3166 13.6148C11.8675 13.6148 9.71185 15.2788 8.84961 18.6069C10.143 16.9428 11.652 16.3188 13.3765 16.7348C14.3605 16.9722 15.0637 17.661 15.8422 18.4234C17.1103 19.6654 18.5779 21.1029 21.7836 21.1029C25.2327 21.1029 27.3883 19.4389 28.2506 16.1108C26.9572 17.7748 25.4482 18.3989 23.7237 17.9829C22.7398 17.7455 22.0365 17.0567 21.2581 16.2943C19.9899 15.0523 18.5223 13.6148 15.3166 13.6148Z" fill="#0ED7B5"/>
<path d="M57.3025 6.03905L57.0749 7.74593H54.1488V17.2719H51.9867V7.74593H48.9631V6.03905H57.3025ZM64.1865 14.9961C64.1865 15.3321 64.2353 15.5813 64.3328 15.7439C64.4412 15.8956 64.6092 16.0148 64.8368 16.1015L64.3979 17.4833C63.9102 17.4399 63.5092 17.3207 63.1949 17.1256C62.8915 16.9306 62.6585 16.6325 62.4959 16.2316C62.2033 16.6651 61.8348 16.9902 61.3905 17.2069C60.957 17.4128 60.4693 17.5158 59.9275 17.5158C59.0713 17.5158 58.394 17.2719 57.8955 16.7843C57.3969 16.2966 57.1477 15.6572 57.1477 14.8661C57.1477 13.9341 57.4836 13.2242 58.1556 12.7365C58.8383 12.238 59.8083 11.9888 61.0654 11.9888H62.1383V11.5011C62.1383 10.9484 62.0082 10.5636 61.7481 10.3469C61.4989 10.1193 61.0925 10.0055 60.5289 10.0055C59.9004 10.0055 59.1418 10.1572 58.2531 10.4607L57.7654 9.04641C58.8383 8.63459 59.8787 8.42869 60.8866 8.42869C63.0865 8.42869 64.1865 9.41488 64.1865 11.3873V14.9961ZM60.4802 16.004C61.1846 16.004 61.7373 15.6518 62.1383 14.9473V13.2079H61.2767C59.9329 13.2079 59.261 13.7065 59.261 14.7035C59.261 15.1153 59.3639 15.435 59.5698 15.6626C59.7757 15.8902 60.0792 16.004 60.4802 16.004ZM68.7853 8.67253V17.2719H66.7045V8.67253H68.7853ZM67.7286 4.31592C68.1188 4.31592 68.4331 4.44055 68.6715 4.68981C68.9208 4.92823 69.0454 5.22625 69.0454 5.58389C69.0454 5.94152 68.9208 6.23954 68.6715 6.47797C68.4331 6.71639 68.1188 6.8356 67.7286 6.8356C67.3493 6.8356 67.0351 6.71639 66.7858 6.47797C66.5474 6.23954 66.4282 5.94152 66.4282 5.58389C66.4282 5.22625 66.5474 4.92823 66.7858 4.68981C67.0351 4.44055 67.3493 4.31592 67.7286 4.31592ZM73.3244 17.5158C72.6634 17.5158 72.1432 17.3261 71.7639 16.9468C71.3954 16.5567 71.2112 16.0094 71.2112 15.305V5.22625L73.2919 4.99867V15.2399C73.2919 15.6409 73.4545 15.8414 73.7796 15.8414C73.9422 15.8414 74.1047 15.8143 74.2673 15.7601L74.7062 17.2232C74.2727 17.4183 73.8121 17.5158 73.3244 17.5158ZM86.588 8.67253L84.7185 17.2719H82.1176L80.8171 10.5257L79.4841 17.2719H76.9319L75.03 8.67253H77.1107L78.3137 15.7439L79.8092 8.67253H81.9388L83.3043 15.7439L84.5885 8.67253H86.588ZM90.1054 8.67253V17.2719H88.0246V8.67253H90.1054ZM89.0487 4.31592C89.4389 4.31592 89.7532 4.44055 89.9916 4.68981C90.2408 4.92823 90.3655 5.22625 90.3655 5.58389C90.3655 5.94152 90.2408 6.23954 89.9916 6.47797C89.7532 6.71639 89.4389 6.8356 89.0487 6.8356C88.6694 6.8356 88.3551 6.71639 88.1059 6.47797C87.8675 6.23954 87.7483 5.94152 87.7483 5.58389C87.7483 5.22625 87.8675 4.92823 88.1059 4.68981C88.3551 4.44055 88.6694 4.31592 89.0487 4.31592ZM97.1967 8.42869C97.9662 8.42869 98.5622 8.66169 98.9849 9.12769C99.4184 9.58286 99.6351 10.2223 99.6351 11.0459V17.2719H97.5543V11.371C97.5543 10.8617 97.4622 10.504 97.278 10.2981C97.1046 10.0922 96.8445 9.98926 96.4977 9.98926C96.1401 9.98926 95.8149 10.1031 95.5223 10.3306C95.2406 10.5474 94.9642 10.8671 94.6933 11.2897V17.2719H92.6125V8.67253H94.4169L94.5795 9.79419C95.2839 8.88385 96.1563 8.42869 97.1967 8.42869ZM109.292 5.22625V17.2719H107.455L107.309 16.1828C107.038 16.5946 106.691 16.9197 106.268 17.1582C105.856 17.3966 105.385 17.5158 104.854 17.5158C103.803 17.5158 102.995 17.1094 102.432 16.2966C101.868 15.4838 101.587 14.3784 101.587 12.9804C101.587 12.1025 101.727 11.3223 102.009 10.6395C102.291 9.94591 102.692 9.40405 103.212 9.0139C103.743 8.62376 104.355 8.42869 105.049 8.42869C105.873 8.42869 106.593 8.73755 107.211 9.35528V4.99867L109.292 5.22625ZM105.439 15.939C105.808 15.939 106.133 15.8523 106.415 15.6789C106.696 15.4946 106.962 15.2129 107.211 14.8335V10.8996C106.962 10.5962 106.707 10.3686 106.447 10.2168C106.198 10.0651 105.905 9.98926 105.569 9.98926C105.017 9.98926 104.578 10.2385 104.252 10.737C103.938 11.2247 103.781 11.9671 103.781 12.9641C103.781 14.0262 103.922 14.7902 104.204 15.2562C104.485 15.7114 104.897 15.939 105.439 15.939ZM57.3025 25.6817L57.0749 27.3886H54.1488V36.9146H51.9867V27.3886H48.9631V25.6817H57.3025ZM64.806 32.4117C64.806 32.5201 64.7897 32.8018 64.7572 33.257H59.3602C59.4252 34.0915 59.642 34.6875 60.0104 35.0452C60.3789 35.4028 60.8666 35.5816 61.4735 35.5816C61.8528 35.5816 62.2104 35.522 62.5464 35.4028C62.8823 35.2728 63.24 35.0777 63.6193 34.8176L64.4808 36.0043C63.5272 36.7737 62.4651 37.1585 61.2947 37.1585C59.9833 37.1585 58.9701 36.7575 58.2548 35.9555C57.5504 35.1535 57.1982 34.059 57.1982 32.6718C57.1982 31.794 57.3499 31.0083 57.6533 30.3147C57.9568 29.6103 58.3957 29.063 58.9701 28.6728C59.5444 28.2718 60.2272 28.0714 61.0183 28.0714C62.2213 28.0714 63.1533 28.4561 63.8143 29.2255C64.4754 29.9841 64.806 31.0462 64.806 32.4117ZM62.7414 31.8102C62.7414 30.3038 62.1833 29.5506 61.0671 29.5506C60.5577 29.5506 60.1567 29.7403 59.8641 30.1196C59.5824 30.4881 59.4144 31.0841 59.3602 31.9078H62.7414V31.8102ZM75.7923 28.0714C76.4859 28.0714 77.0386 28.3098 77.4504 28.7866C77.8622 29.2526 78.0681 29.8866 78.0681 30.6886V36.9146H75.9874V31.0137C75.9874 30.0925 75.6731 29.6319 75.0445 29.6319C74.7086 29.6319 74.416 29.7403 74.1667 29.957C73.9283 30.163 73.679 30.4881 73.4189 30.9324V36.9146H71.3382V31.0137C71.3382 30.0925 71.0239 29.6319 70.3953 29.6319C70.0485 29.6319 69.7505 29.7403 69.5012 29.957C69.2628 30.163 69.0135 30.4881 68.7535 30.9324V36.9146H66.6727V28.3152H68.4771L68.6397 29.4369C69.2899 28.5265 70.119 28.0714 71.1268 28.0714C71.6254 28.0714 72.0534 28.2014 72.4111 28.4615C72.7795 28.7108 73.045 29.063 73.2076 29.5181C73.5544 29.0521 73.9337 28.6945 74.3455 28.4452C74.7682 28.196 75.2504 28.0714 75.7923 28.0714ZM84.938 28.0714C86.0217 28.0714 86.8237 28.4669 87.3439 29.258C87.8641 30.0492 88.1242 31.16 88.1242 32.5905C88.1242 33.4792 87.9887 34.2703 87.7178 34.9639C87.4577 35.6466 87.0675 36.1831 86.5473 36.5732C86.038 36.9634 85.4311 37.1585 84.7267 37.1585C83.8163 37.1585 83.0956 36.8442 82.5646 36.2156V40.2308L80.4839 40.4584V28.3152H82.3045L82.4183 29.3718C82.7543 28.9383 83.139 28.6132 83.5725 28.3965C84.006 28.1797 84.4612 28.0714 84.938 28.0714ZM84.1415 35.5654C85.3444 35.5654 85.9459 34.5792 85.9459 32.6068C85.9459 31.5556 85.8104 30.7969 85.5395 30.3309C85.2685 29.8649 84.8621 29.6319 84.3203 29.6319C83.9735 29.6319 83.6484 29.7403 83.3449 29.957C83.0415 30.163 82.7814 30.4447 82.5646 30.8024V34.6713C82.9656 35.2673 83.4912 35.5654 84.1415 35.5654ZM92.1997 37.1585C91.5386 37.1585 91.0184 36.9688 90.6391 36.5895C90.2706 36.1994 90.0864 35.6521 90.0864 34.9476V24.8689L92.1672 24.6413V34.8826C92.1672 35.2836 92.3297 35.4841 92.6549 35.4841C92.8174 35.4841 92.98 35.457 93.1425 35.4028L93.5814 36.8658C93.148 37.0609 92.6874 37.1585 92.1997 37.1585ZM101.239 34.6388C101.239 34.9747 101.287 35.224 101.385 35.3865C101.493 35.5383 101.661 35.6575 101.889 35.7442L101.45 37.1259C100.962 37.0826 100.561 36.9634 100.247 36.7683C99.9436 36.5732 99.7106 36.2752 99.5481 35.8742C99.2555 36.3077 98.887 36.6328 98.4427 36.8496C98.0092 37.0555 97.5215 37.1585 96.9796 37.1585C96.1235 37.1585 95.4461 36.9146 94.9476 36.4269C94.4491 35.9393 94.1998 35.2999 94.1998 34.5087C94.1998 33.5767 94.5358 32.8669 95.2077 32.3792C95.8905 31.8807 96.8604 31.6314 98.1175 31.6314H99.1904V31.1437C99.1904 30.591 99.0604 30.2063 98.8003 29.9896C98.551 29.762 98.1446 29.6482 97.5811 29.6482C96.9525 29.6482 96.1939 29.7999 95.3053 30.1034L94.8176 28.6891C95.8905 28.2773 96.9309 28.0714 97.9387 28.0714C100.139 28.0714 101.239 29.0575 101.239 31.0299V34.6388ZM97.5323 35.6466C98.2368 35.6466 98.7895 35.2944 99.1904 34.59V32.8506H98.3289C96.985 32.8506 96.3131 33.3491 96.3131 34.3462C96.3131 34.758 96.4161 35.0777 96.622 35.3053C96.8279 35.5329 97.1314 35.6466 97.5323 35.6466ZM108.682 36.5082C108.379 36.725 108.037 36.8875 107.658 36.9959C107.29 37.1043 106.91 37.1585 106.52 37.1585C105.675 37.1476 105.03 36.9092 104.586 36.4432C104.152 35.9663 103.935 35.2673 103.935 34.3462V29.8107H102.586V28.3152H103.935V26.4132L106.016 26.1694V28.3152H108.016L107.804 29.8107H106.016V34.2974C106.016 34.7201 106.087 35.0235 106.228 35.2077C106.379 35.392 106.612 35.4841 106.927 35.4841C107.241 35.4841 107.582 35.3811 107.951 35.1752L108.682 36.5082ZM116.638 32.4117C116.638 32.5201 116.622 32.8018 116.589 33.257H111.192C111.257 34.0915 111.474 34.6875 111.842 35.0452C112.211 35.4028 112.698 35.5816 113.305 35.5816C113.685 35.5816 114.042 35.522 114.378 35.4028C114.714 35.2728 115.072 35.0777 115.451 34.8176L116.313 36.0043C115.359 36.7737 114.297 37.1585 113.127 37.1585C111.815 37.1585 110.802 36.7575 110.087 35.9555C109.382 35.1535 109.03 34.059 109.03 32.6718C109.03 31.794 109.182 31.0083 109.485 30.3147C109.789 29.6103 110.228 29.063 110.802 28.6728C111.376 28.2718 112.059 28.0714 112.85 28.0714C114.053 28.0714 114.985 28.4561 115.646 29.2255C116.307 29.9841 116.638 31.0462 116.638 32.4117ZM114.573 31.8102C114.573 30.3038 114.015 29.5506 112.899 29.5506C112.39 29.5506 111.989 29.7403 111.696 30.1196C111.414 30.4881 111.246 31.0841 111.192 31.9078H114.573V31.8102ZM121.219 28.0714C122.379 28.0714 123.398 28.4127 124.275 29.0955L123.463 30.3147C122.726 29.8487 122.005 29.6157 121.301 29.6157C120.889 29.6157 120.569 29.6969 120.342 29.8595C120.114 30.0112 120 30.2171 120 30.4772C120 30.6723 120.049 30.8349 120.146 30.9649C120.244 31.095 120.417 31.2196 120.667 31.3388C120.927 31.4472 121.306 31.5718 121.805 31.7127C122.737 31.962 123.425 32.2925 123.869 32.7043C124.324 33.1161 124.552 33.6905 124.552 34.4274C124.552 35.2836 124.205 35.9555 123.511 36.4432C122.818 36.92 121.956 37.1585 120.927 37.1585C120.222 37.1585 119.577 37.0501 118.992 36.8333C118.418 36.6166 117.919 36.3186 117.497 35.9393L118.537 34.7688C119.285 35.3324 120.065 35.6141 120.878 35.6141C121.344 35.6141 121.712 35.522 121.983 35.3378C122.265 35.1535 122.406 34.8989 122.406 34.5737C122.406 34.3245 122.352 34.1294 122.243 33.9885C122.146 33.8368 121.962 33.7068 121.691 33.5984C121.431 33.4792 121.019 33.3383 120.455 33.1757C119.577 32.9373 118.933 32.6068 118.521 32.1841C118.109 31.7506 117.903 31.2142 117.903 30.5748C117.903 30.0979 118.039 29.6699 118.31 29.2905C118.591 28.9112 118.981 28.6132 119.48 28.3965C119.989 28.1797 120.569 28.0714 121.219 28.0714Z" fill="white"/>
</g>
<defs>
<clipPath id="clip0">
<rect width="127" height="43.688" fill="white"/>
</clipPath>
</defs>
</svg>
